!!!!SEGMENT: pl-kk--kk-i-382--009-001_anonim--nro-3-kyrie.krn
!!!cenid: 18xx:1467
!!!COM: Anonim
!!!COM-rism: pe30004985
!!!CDT:
!!!CNT:
!!!OTL: Nro 3 Kyrie
!!!PDT:
!!!AGN: Sacred
!!!SMS-siglum: PL-Kk
!!!SMS-shelfmark: Kk.I.382
!!!NIFC-rismID: 1001139092
!!!URL-scan: http://repozytorium.nifc.pl/skany/pl-kk-nut--i-382
!!!ONB-nifc: UWAGA: obsada: S/T 1, T 2, A/B 1, B 2. Skany 0009,0153,0080,0225
!!!SMS-variant:
!!!SMS-altvar:
**kern	**text	**dynam	**kern	**text	**kern	**text	**kern	**text
*part4	*part4	*part4	*part3	*part3	*part2	*part2	*part1	*part1
*staff4	*staff4	*	*staff3	*staff3	*staff2	*staff2	*staff1	*staff1
*I"Basso II	*	*	*I"Tenore II	*	*I"Alto vel Basso I	*	*I"Soprano vel Tenore I.	*
*I'B II	*	*	*I'T II	*	*I'A vel B I	*	*I'S vel T I	*
*clefF4	*	*	*clefC4	*	*clefC3	*	*clefC1	*
*k[]	*	*	*k[]	*	*k[]	*	*k[]	*
*M4/4	*	*	*M4/4	*	*M4/4	*	*M4/4	*
*met(C.)	*	*	*met(C.)	*	*met(C.)	*	*met(C.)	*
=1	=1	=1	=1	=1	=1	=1	=1	=1
*all\right	*	*	*all\right	*	*all\right	*	*all\right	*
*2\right	*	*	*2\right	*	*2\right	*	*2\right	*
!LO:TX:a:t=Andante.	!	!	!	!	!	!	!	!
4.C/	Ky-	.	4.c\	Ky-	4.g\	Ky-	4.ee\	Ky-
8C/	-ri-	.	8c\	-ri-	8g\	-ri-	8ee\	-ri-
4E\	-e	.	4c\	-e	4g\	-e	4ee\	-e
4G\	e-	.	4B\	e-	4f\	e-	4dd\	e-
=2	=2	=2	=2	=2	=2	=2	=2	=2
(8c\L	-le-	.	2G/	-lei-	2e\	-lei-	2cc\	-lei-
8G\J)	.	.	.	.	.	.	.	.
(8E\L	-i-	.	.	.	.	.	.	.
8C\J)	.	.	.	.	.	.	.	.
2G\	-son	.	2G/	-son	2d\	-son	2b\	-son
=3	=3	=3	=3	=3	=3	=3	=3	=3
4C/	Ky-	.	4G/	Ky-	4e\	Ky-	4cc\	Ky-
4C/	-ri-	.	4G/	-ri-	(8d\L	-ri-	(8b\L	-ri-
.	.	.	.	.	8e\J)	.	8cc\J)	.
4BB/	-e	.	4G/	e	4f\	-e	4dd\	-e
4C/	e-	.	4G/	e-	4e\	e-	4cc\	e-
=4	=4	=4	=4	=4	=4	=4	=4	=4
(8G\L	-le-	.	2G/	-lei-	4.e\	-le-	4.cc\	-le-
8D\J)	.	.	.	.	.	.	.	.
(8BB/L	-i-	.	.	.	.	.	.	.
8D/J)	.	.	.	.	8d\	-i-	8b\	-i-
2GG/	-son	.	2G/	-son	2d\	-son	2b\	-son
!	!	!	!	!	!	!	!LO:LB:g=original	!
=5	=5	=5	=5	=5	=5	=5	=5	=5
4GG/	Ky-	.	4B\	Ky-	4f\	Ky-	4dd\	Ky-
4G\	-ri-	.	4B\	-ri-	4f\	-ri-	4dd\	-ri-
!LO:LB:g=original	!	!	!	!	!	!	!	!
4G\	-e	.	4G/	-e	4e\	-e	4cc\	-e
4G\	e-	.	4G/	e-	4d\	e-	4b\	e-
!	!	!	!LO:LB:g=original	!	!LO:LB:g=original	!	!	!
=6	=6	=6	=6	=6	=6	=6	=6	=6
4c\	-le-	.	4G/	-le-	4e\	-le-	4cc\	-le-
(8G\L	-i-	.	4B\	-i-	4f\	-i-	4dd\	-i-
8E\J)	.	.	.	.	.	.	.	.
2C/	-son	.	2c\	-son	2g\	-son	2ee\	-son
=7	=7	=7	=7	=7	=7	=7	=7	=7
4C/	Ky-	.	(8e\L	Ky-	(8g\L	Ky-	(8ee\L	Ky-
.	.	.	8c\J)	.	8e\J)	.	8cc\J)	.
4BB/	-ri-	.	(8f\L	-ri-	(8a\L	-ri-	(8ff\L	-ri-
.	.	.	8e\J)	.	8g\J)	.	8ee\J)	.
4C/	-e	.	(8e\L	-e	(8g\L	-e	(8ee\L	-e
.	.	.	8d\J)	.	8f\J)	.	8dd\J)	.
4F#X\	e-	.	(8d\L	e-	(8f\L	e-	(8dd\L	e-
.	.	.	8c\J)	.	8e\J)	.	8cc\J)	.
=8	=8	=8	=8	=8	=8	=8	=8	=8
2G\	-lei-	.	4.c\	-le-	4.e\	-le-	4.cc\	-le-
.	.	.	8B\	-i-	8d\	-i-	8b\	-i-
!LO:TX:a:t=Solo.	!	!	!	!	!	!	!	!
2GG/	-son	.	2B\	-son	2d\	-son	2b\	-son
=9	=9	=9	=9	=9	=9	=9	=9	=9
!	!	!LO:DY:b:rj	!	!	!LO:TX:b:t=2	!	!	!
(4.B\	Chri-	p	(4.d\	Chri-	0r	.	(4.b\	Chri-
8A\)	.	.	8c\)	.	.	.	8a\)	.
4G\	-ste	.	4B\	-ste	.	.	4g\	-ste
4A\	e-	.	4c\	e-	.	.	4a\	e-
!	!	!	!	!	!	!	!LO:LB:g=original	!
=10	=10	=10	=10	=10	=10	=10	=10	=10
(8B\L	-le-	.	(8d\L	-le-	.	.	(8b\L	-le-
8c\J)	.	.	8e\J)	.	.	.	8cc\J)	.
(8B\L	-i-	.	(8d\L	-i-	.	.	(8b\L	-i-
8c\J)	.	.	8e\J)	.	.	.	8cc\J)	.
4d\	-son	.	4f\	-son	.	.	4dd\	-son
4r	.	.	4r	.	.	.	4r	.
!LO:LB:g=original	!	!	!LO:LB:g=original	!	!	!	!	!
=11	=11	=11	=11	=11	=11	=11	=11	=11
(4.c\	Chri-	.	(4.e\	Chri-	(4.g\	Chri-	(4.cc\	Chri-
8G\)	.	.	8d\)	.	8f\)	.	8g\)	.
4E\	-ste	.	4c\	-ste	4e\	-ste	4g\	-ste
4G\	e-	.	4d\	e-	4f\	e-	4g\	e-
=12	=12	=12	=12	=12	=12	=12	=12	=12
(8c\L	-le-	.	(8e\L	-le-	(8g\L	-le-	(8cc\L	-le-
8B\J)	.	.	8f\J)	.	8a\J)	.	8b\J)	.
(8c\L	-i-	.	(8e\L	-i-	(8g\L	-i-	(8cc\L	-i-
8B\J)	.	.	8f\J)	.	8a\J)	.	8b\J)	.
!	!	!	!LO:TX:t=P:problem:4f poprawione na 4e	!	!	!	!	!
4c\	-son	.	4e\	-son	4g\	-son	4cc\	-son
4r	.	.	(8e\L	Chri-	4r	.	4r	.
.	.	.	8f\J)	.	.	.	.	.
!	!	!	!	!	!LO:LB:g=original	!	!	!
=13	=13	=13	=13	=13	=13	=13	=13	=13
!	!	!LO:DY:a:rj:t=f.	!	!	!	!	!	!
(4C/	Chri-	f	(8g\L	-ste	(8e\L	Chri-	4cc\	Chri-
.	.	.	8e\J)	.	8g\J)	.	.	.
4E/)	.	.	2c\	.	2e\	-ste	8g\	-ste
.	.	.	.	.	.	.	8g\	e-
4C/	-ste	.	.	.	.	.	4g\	-le-
4E/	e-	.	4B-X\	e-	4g\	e-	4cc\	-i-
=14	=14	=14	=14	=14	=14	=14	=14	=14
4F\	-le-	.	4.B-X\	-le-	4.g\	-le-	2cc\	-son
4C/	-i-	.	.	.	.	.	.	.
.	.	.	8A\	-i-	8f\	-i-	.	.
4FF/	-son	.	4A\	-son	4f\	-son	2r	.
4r	.	.	(8d\L	Chri-	(8f#X\L	Chri-	.	.
.	.	.	8e\J)	.	8g\J)	.	.	.
!	!	!	!	!	!	!	!LO:LB:g=original	!
=15	=15	=15	=15	=15	=15	=15	=15	=15
(4D\	Chri-	.	4f#X\	-ste	(4a\	-ste	4a\	Chi-
4F#X\)	.	.	(4d\	e-	4f#X\)	.	2a\	-ste
4D\	-ste	.	2c\)	.	2f#\	e-	.	.
4D\	e-	.	.	.	.	.	4a\	e-
!LO:LB:g=original	!	!	!LO:LB:g=original	!	!	!	!	!
=16	=16	=16	=16	=16	=16	=16	=16	=16
(8F#X\L	-le-	.	2c\	-lei-	2f#X\	-lei-	2a\	-lei-
8D\J)	.	.	.	.	.	.	.	.
(8E\L	-i-	.	.	.	.	.	.	.
8F#\J)	.	.	.	.	.	.	.	.
4G\	-son	.	4d\	-son	4g\	-son	4dd\	-son
!	!	!	!LO:TX:t=P:problem:2c poprawione na 4r	!	!	!	!	!
4r	.	.	4r	.	4r	.	4r	.
=17	=17	=17	=17	=17	=17	=17	=17	=17
!	!	!	!	!	!LO:TX:b:t=2	!	!	!
4G\	Ky-	.	(8d\L	Ky-	0r	.	(8b\L	Ky-
.	.	.	8c\J)	.	.	.	8a\J)	.
4G\	-ri-	.	(8B\L	-ri-	.	.	(8g\L	-ri-
.	.	.	8c\J)	.	.	.	8a\J)	.
4G\	-e	.	(8d\L	-e	.	.	(8b\L	-e
.	.	.	8e\J)	.	.	.	8cc\J)	.
4G\	e-	.	(8d\L	e-	.	.	(8b\L	e-
.	.	.	8e\J)	.	.	.	8cc\J)	.
=18	=18	=18	=18	=18	=18	=18	=18	=18
4G\	-le-	.	4.f\	-le-	.	.	4.dd\	-le-
4D\	-i-	.	.	.	.	.	.	.
.	.	.	8e\	-i-	.	.	8cc\	-i-
(>4BB/	-son	.	2d\	-son	.	.	2b\	-son
4GG/)	.	.	.	.	.	.	.	.
=19	=19	=19	=19	=19	=19	=19	=19	=19
4C/	Ky-	.	(8c\L	Ky-	(8e\L	Ky-	(8cc\L	Ky-
.	.	.	8B\J)	.	8d\J)	.	8b\J)	.
4c\	-ri-	.	(8c\L	-ri-	(8c\L	-ri-	(8cc\L	-ri-
.	.	.	8B\J)	.	8d\J)	.	8b\J)	.
4G\	-e	.	(8c\L	-e	(8e\L	-e	(8cc\L	-e
.	.	.	8B\J)	.	8d\J)	.	8b\J)	.
4E\	e-	.	(8c\L	e-	(8e\L	e-	(8cc\L	e-
.	.	.	8d\J)	.	8f\J)	.	8dd\J)	.
!	!	!	!	!	!LO:LB:g=original	!	!LO:LB:g=original	!
=20	=20	=20	=20	=20	=20	=20	=20	=20
4C/	-le-	.	4e\	-le-	4.g\	-le-	4ee\	-le-
4GG/	-i-	.	4d\	-i-	.	.	4dd\	-i-
.	.	.	.	.	8f\	-i-	.	.
2C/	-son	.	2c\	-son	2e\	-son	2cc\	-son
!LO:LB:g=original	!	!	!LO:LB:g=original	!	!	!	!	!
=21	=21	=21	=21	=21	=21	=21	=21	=21
(8Fn\L	Ky-	.	2f\	Ky-	2a\	Ky-	2cc\	Ky-
8G\J)	.	.	.	.	.	.	.	.
(8A\L	-ri-	.	.	.	.	.	.	.
8G\J)	.	.	.	.	.	.	.	.
(8F\L	-e	.	2f\	-ri-	2a\	-ri-	2cc\	-ri-
8G\J)	.	.	.	.	.	.	.	.
(8A\L	e-	.	.	.	.	.	.	.
8B\J)	.	.	.	.	.	.	.	.
=22	=22	=22	=22	=22	=22	=22	=22	=22
(8c\L	-le-	.	2e\	-e	(2g\	-e	2cc\	-e
8G\J)	.	.	.	.	.	.	.	.
(8E\L	-i-	.	.	.	.	.	.	.
8C\J)	.	.	.	.	.	.	.	.
4G\	-son	.	2d\	e-	2f\)	.	2b\	e-
4GG/	e-	.	.	.	.	.	.	.
=23	=23	=23	=23	=23	=23	=23	=23	=23
(4C/	-le-	.	(4e\	-le-	(4g\	e-	(4cc\	-le-
4F\	.	.	8f\L	.	8a\L	.	4a\)	.
.	.	.	8d\J	.	8f\J)	.	.	.
4G\)	.	.	4c\)	.	4e\	-le-	2g\	-i-
4GG/	-i-	.	4B\	-i-	4d\	-i-	.	.
=24	=24	=24	=24	=24	=24	=24	=24	=24
1C	-son.	.	1c	-son.	1e	-son.	1g	-son.
==	==	==	==	==	==	==	==	==
*-	*-	*-	*-	*-	*-	*-	*-	*-
!!!system-decoration: [(s1,s2,s3,s4)]
!!!RDF**kern: > = above
!!!ENC: Zofia Niedbalska
!!!END: 2021-02-02
!!!ENC: Katarzyna Serwa
!!!END: 2021-01-30
